X:1
T:An der schönen blauen Donau, Op. 314
T:The Blue Danube Waltz
T:The Blue Danube Waltz
T:Johann Strauss
T:Public Domain
T:Public Domain
Z:Public Domain
%%score { 1 | 2 }
L:1/8
M:3/4
K:C
V:1 treble nm="Piano"
V:2 bass 
V:1
!mf! z2 | z6 | z4 G2 | G4 E2 | E4 z2 | z6 | z4 G2 | G4 F2 | F4 z2 | z6 | z4 A2 | A4 F2 | F4 z2 | %13
 z6 | z4 A2 | A4 E2 | E4"_cresc." z2 | z6 | z4 c2 | c4 G2 | G4 z2 | z6 | z4"_cresc." c2 | c4 A2 | %24
 A4!f! z2 | z6 | z6 | z6 | (E6 | E2) C2 z2 | z6 | z6 | z3 !>!C !>!C2 | !>!C2 z4 |] %34
V:2
 C,2 | C,2 E,2 G,2 | G,4 z2 | z6 | z2 z2 C,2 | C,2 E,2 G,2 | G,4 z2 | z6 | z2 z2 B,,2 | %9
 B,,2 D,2 A,2 | A,4 z2 | z6 | z2 z2 B,,2 | B,,2 D,2 A,2 | A,4 z2 | z6 | z2 z2 C,2 | C,2 E,2 G,2 | %18
 C4 z2 | z6 | z2 z2 C,2 | C,2 E,2 G,2 | C4 z2 | z6 | z2 z2 D,2 | D,2 F,2 A,2 | (A,6 | %27
 A,2) ^F,2 G,2 | z6 | z2 z2 E,2 | E,4 D,2 | A,4 G,2 | C,3 z z2 | z6 |] %34

